flaticon/user-interface/italic.svg

<svg xmlns="http://www.w3.org/2000/svg" width="32" height="32" viewBox="0 0 24 24">
    <path d="M 0 0.199219 L 0 23.800781 L 24 23.800781 L 24 0.199219 Z M 23.199219 23 L 0.800781 23 L 0.800781 1 L 23.199219 1 Z M 23.199219 23"/>
    <path d="M 6.3125 6.992188 C 6.34375 6.996094 6.371094 7 6.402344 7 C 6.582031 7 6.75 6.875 6.789062 6.6875 L 7.078125 5.398438 L 11.855469 5.398438 L 8.835938 19 L 6.753906 19 C 6.535156 19 6.355469 19.179688 6.355469 19.398438 C 6.355469 19.621094 6.535156 19.800781 6.753906 19.800781 L 11.554688 19.800781 C 11.777344 19.800781 11.957031 19.621094 11.957031 19.398438 C 11.957031 19.179688 11.777344 19 11.554688 19 L 9.65625 19 L 12.675781 5.398438 L 17.457031 5.398438 L 17.210938 6.511719 C 17.164062 6.730469 17.296875 6.941406 17.515625 6.992188 C 17.542969 6.996094 17.574219 7 17.601562 7 C 17.785156 7 17.949219 6.871094 17.992188 6.6875 L 18.347656 5.085938 C 18.351562 5.070312 18.347656 5.058594 18.347656 5.042969 C 18.347656 5.027344 18.355469 5.015625 18.355469 5 C 18.355469 4.988281 18.351562 4.976562 18.347656 4.964844 C 18.347656 4.9375 18.339844 4.910156 18.332031 4.886719 C 18.324219 4.859375 18.316406 4.835938 18.304688 4.816406 C 18.292969 4.792969 18.28125 4.773438 18.265625 4.753906 C 18.246094 4.734375 18.230469 4.714844 18.210938 4.699219 C 18.191406 4.679688 18.171875 4.667969 18.148438 4.65625 C 18.125 4.644531 18.101562 4.632812 18.074219 4.625 C 18.0625 4.621094 18.054688 4.613281 18.042969 4.609375 C 18.027344 4.605469 18.015625 4.609375 18 4.609375 C 17.984375 4.605469 17.972656 4.597656 17.957031 4.597656 L 6.757812 4.597656 C 6.742188 4.597656 6.730469 4.605469 6.714844 4.609375 C 6.691406 4.609375 6.671875 4.613281 6.648438 4.621094 C 6.621094 4.628906 6.59375 4.640625 6.566406 4.652344 C 6.546875 4.664062 6.53125 4.675781 6.515625 4.6875 C 6.492188 4.707031 6.472656 4.726562 6.453125 4.746094 C 6.4375 4.765625 6.425781 4.785156 6.414062 4.804688 C 6.398438 4.828125 6.390625 4.851562 6.378906 4.878906 C 6.375 4.890625 6.367188 4.902344 6.367188 4.914062 L 6.011719 6.511719 C 5.960938 6.730469 6.097656 6.941406 6.3125 6.992188 Z M 6.3125 6.992188"/>
</svg>

<svg xmlns="http://www.w3.org/2000/svg" width="32" height="32" viewBox="0 0 24 24">
    <path d="M0 .2v23.6h24V.2zM23.2 23H.8V1h22.4zm0 0"/>
    <path d="M6.313 6.992c.03.004.058.008.09.008.179 0 .347-.125.386-.313l.29-1.289h4.776L8.835 19H6.755a.4.4 0 0 0 0 .8h4.8a.401.401 0 0 0 0-.8H9.657l3.02-13.602h4.781l-.246 1.114A.402.402 0 0 0 17.6 7a.404.404 0 0 0 .391-.313l.356-1.601c.004-.016 0-.027 0-.043 0-.016.007-.027.007-.043 0-.012-.003-.023-.007-.035a.253.253 0 0 0-.016-.078.293.293 0 0 0-.027-.07.337.337 0 0 0-.04-.063c-.019-.02-.035-.04-.054-.055a.423.423 0 0 0-.137-.074c-.011-.004-.02-.012-.031-.016-.016-.004-.027 0-.043 0-.016-.004-.027-.011-.043-.011h-11.2c-.015 0-.027.007-.042.011a.198.198 0 0 0-.067.012.704.704 0 0 0-.082.031.571.571 0 0 0-.113.094.509.509 0 0 0-.039.059c-.016.023-.023.047-.035.074-.004.012-.012.023-.012.035l-.355 1.598a.4.4 0 0 0 .3.48zm0 0"/>
</svg>
